!!!SOCIAL_FUNCTION:	deer dance songs
!!!PDT:	1932
!!!OTL: No_74_The_Redbird_Speaks_(a).krn
!!!REG: Southwest
!!!LANG: Non-Tone
!!!LING_GROUP: Yuman-Cochimi
**kern	**kern
*staff2	*staff1
=1-	=1-
*clefF4	*clefF4
*k[f#]	*k[f#]
*M2/4	*M2/4
8GG/L	8r
8GG/J	16r
.	16G\
8GG/L	8.G\L
8GG/J	.
.	16G\Jk
=2!|:	=2!|:
8GG/L	8.d\L
8GG/J	.
.	16d\Jk
8GG/L	16.d\LL
.	32A\JK
8GG/J	8A\J
=3	=3
8GG/L	12c\L
.	12A\
8GG/J	.
.	12G\J
8GG/L	8.G\L
8GG/J	.
.	16G\Jk
=4	=4
2r	8G\L
.	16G\L
.	16G\JJ
.	8E\
.	8r
=5	=5
2r	8.G\L
.	16G\Jk
.	8G\L
.	16E\L
.	16E\JJ
=6	=6
2r	8.G\L
.	16G\Jk
.	8G\L
.	16G\L
.	16G\JJ
=7	=7
2r	8G\
.	16r
.	16E\
.	8.G\L
.	16G\Jk
=8	=8
2r	8.d\L
.	16d\Jk
.	16.d\LL
.	32A\JK
.	8A\J
=9	=9
2r	12c\L
.	12A\
.	12G\J
.	8.G\L
.	16G\Jk
=10	=10
2r	8G\L
.	16G\L
.	16G\JJ
.	8E\
.	8r
=11	=11
2r	8.G\L
.	16G\Jk
.	16.G\LL
.	32E\JK
.	8E\J
=12	=12
2r	8.G\L
.	16G\Jk
.	8G\L
.	24G\K
.	12G\J
=13	=13
2r	8G\
.	16r
.	16E\
.	8.G\L
.	16G\Jk
=14:|!	=14:|!
2r	8G\
.	8r
.	4r
==	==
*-	*-
